X: 99
T: Missa O salutaris hostia / Gloria
N: Derived from Rue1022b-Missa_O_salutaris_hostia-Gloria.krn
C: Pierre de la Rue
%%abc-version 2.0
%%abcx-abcm2ps-target-version 5.9.1 (29 Sep 2008)
%%abc-creator hum2abc beta
%%abcx-conversion-date 2019/02/17 08:01:13
%%abc-edited-by Jesse Rodin
%%abc-edited-by Chris Gage 03-28-2013
%%abcx-initial-encoding-date 2013/07/28/
%%humdrum-veritas 2079976064
%%humdrum-veritas-data 3886320778
%%linebreak <none>
%%barnumbers 0
L: 1/4
M: 2/1
Q: 1/2=120
%%staves [1 2 3 4]
V: 1 clef=treble
V: 2 clef=treble-8
V: 3 clef=treble-8
V: 4 clef=bass
K: F
[V:1] G8 | 
[V:2] z8 | 
[V:3] z8 | 
[V:4] z8 | 
[V:1] G8 | 
[V:2] z8 | 
[V:3] z8 | 
[V:4] z8 | 
[V:1] C4E3F | 
[V:2] c8 | 
[V:3] z8 | 
[V:4] z8 | 
[V:1] G2A3GG2 | 
[V:2] c8 | 
[V:3] z8 | 
[V:4] z8 | 
[V:1] A8 | 
[V:2] F4A3B | 
[V:3] z8 | 
[V:4] z8 | 
[V:1] z4A4 | 
[V:2] c2d3cc2 | 
[V:3] z8 | 
[V:4] z8 | 
[V:1] A2A2B4 | 
[V:2] d8 | 
[V:3] z8 | 
[V:4] z8 | 
[V:1] A4A2A2- | 
[V:2] z4d4 | 
[V:3] z8 | 
[V:4] z8 | 
[V:1] A2GFG4 | 
[V:2] d2d2_e4 | 
[V:3] z8 | 
[V:4] z8 | 
[V:1] F2F2F2F2 | 
[V:2] d4d2d2- | 
[V:3] z8 | 
[V:4] z8 | 
[V:1] D4E4 | 
[V:2] d2cBc4 | 
[V:3] z8 | 
[V:4] z8 | 
[V:1] D2B2B2B2 | 
[V:2] B2B2B2B2 | 
[V:3] z8 | 
[V:4] z8 | 
[V:1] B2AG^F3G | 
[V:2] G4A4 | 
[V:3] z8 | 
[V:4] z8 | 
[V:1] G8- | 
[V:2] G2_e2_e2_e2 | 
[V:3] G8 | 
[V:4] z8 | 
[V:1] G8 | 
[V:2] _e2dc=B3c | 
[V:3] G8 | 
[V:4] z8 | 
[V:1] z8 | 
[V:2] c8- | 
[V:3] C4E3F | 
[V:4] C,8 | 
[V:1] z8 | 
[V:2] c8 | 
[V:3] G2A3GG2 | 
[V:4] C,8 | 
[V:1] z8 | 
[V:2] z8 | 
[V:3] A8 | 
[V:4] F,,4A,,3B,, | 
[V:1] z8 | 
[V:2] z8 | 
[V:3] z4A4 | 
[V:4] C,2D,3C,C,2 | 
[V:1] z8 | 
[V:2] z8 | 
[V:3] A2A2B4 | 
[V:4] D,8 | 
[V:1] z8 | 
[V:2] z8 | 
[V:3] A4A2A2- | 
[V:4] z4D,4 | 
[V:1] z8 | 
[V:2] z8 | 
[V:3] A2GFG4 | 
[V:4] D,2D,2_E,4 | 
[V:1] z8 | 
[V:2] z8 | 
[V:3] F2F2F2F2 | 
[V:4] D,4D,2D,2- | 
[V:1] z8 | 
[V:2] z8 | 
[V:3] D4E4 | 
[V:4] D,2C,B,,C,4 | 
[V:1] z4D4 | 
[V:2] z8 | 
[V:3] D2B2B2B2 | 
[V:4] B,,2B,,2B,,2B,,2 | 
[V:1] D4A4 | 
[V:2] z8 | 
[V:3] B2AG^F3G | 
[V:4] G,,4A,,4 | 
[V:1] B4B2G2- | 
[V:2] z4G4 | 
[V:3] G8- | 
[V:4] G,,2_E,2E,2E,2 | 
[V:1] G2FED4 | 
[V:2] G4d4 | 
[V:3] G8 | 
[V:4] _E,2D,C,=B,,3C, | 
[V:1] z2c3BA2- | 
[V:2] _e4_e2c2- | 
[V:3] z8 | 
[V:4] C,8- | 
[V:1] A2GFE2E2 | 
[V:2] c2BAG4 | 
[V:3] z8 | 
[V:4] C,8 | 
[V:1] F8 | 
[V:2] z2f3ed2- | 
[V:3] z8 | 
[V:4] z8 | 
[V:1] z4F4 | 
[V:2] d2cBA2A2 | 
[V:3] z8 | 
[V:4] z8 | 
[V:1] F4F4 | 
[V:2] B8 | 
[V:3] z8 | 
[V:4] z8 | 
[V:1] G6G2 | 
[V:2] z4B4 | 
[V:3] z8 | 
[V:4] z8 | 
[V:1] F2F2F4 | 
[V:2] B4B4 | 
[V:3] z8 | 
[V:4] z8 | 
[V:1] E2c3BA2- | 
[V:2] c6c2 | 
[V:3] z8 | 
[V:4] z8 | 
[V:1] A2GFG4 | 
[V:2] B2B2B4 | 
[V:3] z8 | 
[V:4] z8 | 
[V:1] A2A3GFE | 
[V:2] A2f3ed2- | 
[V:3] z4D4 | 
[V:4] z8 | 
[V:1] D2D2E4 | 
[V:2] d2cBc4 | 
[V:3] D4A4 | 
[V:4] z8 | 
[V:1] D8 | 
[V:2] d2d3cBA | 
[V:3] B4B2G2- | 
[V:4] z4G,,4 | 
[V:1] z8 | 
[V:2] G2G2A4 | 
[V:3] G2FED4 | 
[V:4] G,,4D,4 | 
[V:1] z8 | 
[V:2] G8 | 
[V:3] z2c3BA2- | 
[V:4] E,4E,2C,2- | 
[V:1] z4G4 | 
[V:2] z8 | 
[V:3] A2GFE2E2 | 
[V:4] C,2B,,A,,G,,4 | 
[V:1] A4A4- | 
[V:2] z8 | 
[V:3] F8 | 
[V:4] z2F,3E,D,2- | 
[V:1] A4A4 | 
[V:2] z4c4 | 
[V:3] z4F4 | 
[V:4] D,2C,B,,A,,2A,,2 | 
[V:1] F2F2F2F2 | 
[V:2] d4d4- | 
[V:3] F4F4 | 
[V:4] B,,8 | 
[V:1] D4z4 | 
[V:2] d4d4 | 
[V:3] G6G2 | 
[V:4] z4B,,4 | 
[V:1] z8 | 
[V:2] B2B2B2B2 | 
[V:3] F2F2F4 | 
[V:4] B,,4B,,4 | 
[V:1] z8 | 
[V:2] G4z4 | 
[V:3] E2c3BA2- | 
[V:4] C,6C,2 | 
[V:1] z4d4 | 
[V:2] z8 | 
[V:3] A2GFG4 | 
[V:4] B,,2B,,2B,,4 | 
[V:1] c2c2A3G | 
[V:2] z8 | 
[V:3] A2A3GFE | 
[V:4] A,,2F,3E,D,2- | 
[V:1] F2EDC4 | 
[V:2] z4g4 | 
[V:3] D2D2E4 | 
[V:4] D,2C,B,,C,4 | 
[V:1] z2A2B2d2- | 
[V:2] f2f2d3c | 
[V:3] D8 | 
[V:4] D,2D,3C,B,,A,, | 
[V:1] dcB2A4 | 
[V:2] B2AGF4 | 
[V:3] z8 | 
[V:4] G,,2G,,2A,,4 | 
[V:1] z2B2G3A | 
[V:2] z2d2e2g2- | 
[V:3] z8 | 
[V:4] G,,8 | 
[V:1] B2c4=B2 | 
[V:2] gfe2d4 | 
[V:3] z4G4 | 
[V:4] z8 | 
[V:1] c4c4 | 
[V:2] z2e2c3d | 
[V:3] A4A4- | 
[V:4] z8 | 
[V:1] c4c4 | 
[V:2] e2f4e2 | 
[V:3] A4A4 | 
[V:4] z4C,4 | 
[V:1] A8 | 
[V:2] f4f4 | 
[V:3] F2F2F2F2 | 
[V:4] D,4D,4 | 
[V:1] z4D4 | 
[V:2] f4f4 | 
[V:3] D4z4 | 
[V:4] D,4D,4 | 
[V:1] D2D2D4 | 
[V:2] d8 | 
[V:3] z8 | 
[V:4] B,,2B,,2B,,2B,,2 | 
[V:1] G4G4 | 
[V:2] z4G4 | 
[V:3] z8 | 
[V:4] G,,4z4 | 
[V:1] G3AB2B2 | 
[V:2] G2G2G4 | 
[V:3] z4d4 | 
[V:4] z8 | 
[V:1] c8- | 
[V:2] c4c4 | 
[V:3] c2c2A3G | 
[V:4] z8 | 
[V:1] c8 | 
[V:2] c3de2e2 | 
[V:3] F2EDC4 | 
[V:4] z4G,4 | 
[V:1] z8 | 
[V:2] f8- | 
[V:3] z2A2B2d2- | 
[V:4] F,2F,2D,3C, | 
[V:1] z4A4 | 
[V:2] f8 | 
[V:3] dcB2A4 | 
[V:4] B,,2A,,G,,F,,4 | 
[V:1] B2d3cBA | 
[V:2] z8 | 
[V:3] z2B2G3A | 
[V:4] z2D,2E,2G,2- | 
[V:1] G4z2D2 | 
[V:2] z4d4 | 
[V:3] B2c4=B2 | 
[V:4] G,F,E,2D,4 | 
[V:1] G2C2E3F | 
[V:2] e2g3fed | 
[V:3] c4c2c2 | 
[V:4] z2E,2C,3D, | 
[V:1] G2A3GG2 | 
[V:2] c4z2G2 | 
[V:3] c4c4 | 
[V:4] E,2F,4E,2 | 
[V:1] A4A4 | 
[V:2] c2F2A3B | 
[V:3] A8- | 
[V:4] F,4F,2F,2 | 
[V:1] A2A2A4 | 
[V:2] c2d3cc2 | 
[V:3] A8- | 
[V:4] F,4F,4 | 
[V:1] A4d4- | 
[V:2] d4d4 | 
[V:3] A8- | 
[V:4] D,8- | 
[V:1] d2cBA2G2 | 
[V:2] d2d2d4 | 
[V:3] A8- | 
[V:4] D,8- | 
[V:1] F4F4 | 
[V:2] d8- | 
[V:3] A8- | 
[V:4] D,8- | 
[V:1] F8 ||  
[V:2] d8 ||  
[V:3] A8 ||  
[V:4] D,8 ||  
[V:1]  [K:F] [K:clef=treble][M:2/1]z8 | 
[V:2]  [K:F] [K:clef=treble-8][M:2/1]z8 | 
[V:3]  [K:F] [K:clef=treble-8][M:2/1]A8 | 
[V:4]  [K:F] [K:clef=bass][M:2/1]z8 | 
[V:1] z8 | 
[V:2] z8 | 
[V:3] A4A4 | 
[V:4] z8 | 
[V:1] z8 | 
[V:2] z8 | 
[V:3] B2B4AG | 
[V:4] D,8 | 
[V:1] z8 | 
[V:2] z8 | 
[V:3] F2F2B4 | 
[V:4] D,4D,4 | 
[V:1] z8 | 
[V:2] z8 | 
[V:3] G8 | 
[V:4] _E,2E,4D,C, | 
[V:1] z8 | 
[V:2] z8 | 
[V:3] G4G4 | 
[V:4] B,,2B,,2_E,4 | 
[V:1] z8 | 
[V:2] z8 | 
[V:3] A4A2G2- | 
[V:4] C,8 | 
[V:1] z8 | 
[V:2] z8 | 
[V:3] GFEDE4 | 
[V:4] C,4C,4 | 
[V:1] A8 | 
[V:2] z8 | 
[V:3] D3EF2G2 | 
[V:4] D,4D,2C,2- | 
[V:1] A4A4 | 
[V:2] z8 | 
[V:3] AG^FE^F4 | 
[V:4] C,B,,A,,G,,A,,4 | 
[V:1] B2B4AG | 
[V:2] d8 | 
[V:3] G8 | 
[V:4] G,,3A,,B,,2C,2 | 
[V:1] F2F2B4 | 
[V:2] d4d4 | 
[V:3] z8 | 
[V:4] D,C,B,,A,,B,,4 | 
[V:1] G8 | 
[V:2] _e2_e4dc | 
[V:3] z8 | 
[V:4] C,8 | 
[V:1] G4G4 | 
[V:2] B2B2_e4 | 
[V:3] z8 | 
[V:4] z8 | 
[V:1] A4A2G2- | 
[V:2] c8 | 
[V:3] z8 | 
[V:4] z8 | 
[V:1] GFEDE4 | 
[V:2] c4c4 | 
[V:3] z8 | 
[V:4] z8 | 
[V:1] D3EF2G2 | 
[V:2] d4d2c2- | 
[V:3] z8 | 
[V:4] z8 | 
[V:1] AG^FEF4 | 
[V:2] cBAGA4 | 
[V:3] z8 | 
[V:4] z8 | 
[V:1] G8 | 
[V:2] G3AB2c2 | 
[V:3] z4G4 | 
[V:4] z8 | 
[V:1] z8 | 
[V:2] dcBAB4 | 
[V:3] G4G4 | 
[V:4] z8 | 
[V:1] z8 | 
[V:2] c8 | 
[V:3] A2A2c4- | 
[V:4] z4C,4 | 
[V:1] z8 | 
[V:2] z8 | 
[V:3] c2BAG2G2 | 
[V:4] C,4C,4 | 
[V:1] z8 | 
[V:2] z8 | 
[V:3] F4A4- | 
[V:4] D,2D,2F,4- | 
[V:1] z8 | 
[V:2] z8 | 
[V:3] A2A2A4 | 
[V:4] F,2E,D,C,2C,2 | 
[V:1] z8 | 
[V:2] z8 | 
[V:3] z2D4D2 | 
[V:4] B,,4D,4- | 
[V:1] z8 | 
[V:2] z8 | 
[V:3] F4F4 | 
[V:4] D,2D,2D,4 | 
[V:1] z4G4 | 
[V:2] z8 | 
[V:3] G4G4 | 
[V:4] z2G,,4G,,2 | 
[V:1] G4G4 | 
[V:2] z8 | 
[V:3] G3AB4 | 
[V:4] B,,4B,,4 | 
[V:1] A2A2c4- | 
[V:2] z4c4 | 
[V:3] A2c3BA2- | 
[V:4] C,4C,C,3 | 
[V:1] c2BAG2G2 | 
[V:2] c4c4 | 
[V:3] A2GFG4 | 
[V:4] C,3D,_E,4 | 
[V:1] F4A4- | 
[V:2] d2d2f4- | 
[V:3] A8- | 
[V:4] D,2F,3_E,D,2- | 
[V:1] A2A2A4 | 
[V:2] f2edc2c2 | 
[V:3] A8 | 
[V:4] D,2C,B,,C,4 | 
[V:1] z2D4D2 | 
[V:2] B4d4- | 
[V:3] z8 | 
[V:4] D,8- | 
[V:1] F4F4 | 
[V:2] d2d2d4 | 
[V:3] z8 | 
[V:4] D,8 | 
[V:1] G4G4 | 
[V:2] z2G4G2 | 
[V:3] z8 | 
[V:4] z8 | 
[V:1] G3AB4 | 
[V:2] B4B4 | 
[V:3] z8 | 
[V:4] z8 | 
[V:1] A2c3BA2- | 
[V:2] c4c4 | 
[V:3] z8 | 
[V:4] z8 | 
[V:1] A2GFG4 | 
[V:2] c3d_e4 | 
[V:3] z8 | 
[V:4] z8 | 
[V:1] A8- | 
[V:2] d2f3_ed2- | 
[V:3] D4D2D2 | 
[V:4] z8 | 
[V:1] A8 | 
[V:2] d2cBc4 | 
[V:3] F3GA2A2 | 
[V:4] z8 | 
[V:1] z8 | 
[V:2] d8- | 
[V:3] B3AG2FE | 
[V:4] G,,4G,,2G,,2 | 
[V:1] z8 | 
[V:2] d8 | 
[V:3] D2G2FEF2 | 
[V:4] B,,3C,D,2D,2 | 
[V:1] z8 | 
[V:2] z8 | 
[V:3] G4c4 | 
[V:4] _E,3D,C,2B,,A,, | 
[V:1] z8 | 
[V:2] z8 | 
[V:3] B2A2B4 | 
[V:4] G,,2C,2B,,A,,B,,2 | 
[V:1] z8 | 
[V:2] z8 | 
[V:3] A2c2d2A2- | 
[V:4] C,4F,4 | 
[V:1] z8 | 
[V:2] z8 | 
[V:3] A2d3^c^c2 | 
[V:4] E,2D,2E,4 | 
[V:1] D4D2D2 | 
[V:2] z8 | 
[V:3] d8 | 
[V:4] D,2F,2G,2D,2- | 
[V:1] F3GA2A2 | 
[V:2] z8 | 
[V:3] z8 | 
[V:4] D,2G,3^F,F,2 | 
[V:1] B3AG2FE | 
[V:2] G4G2G2 | 
[V:3] z8 | 
[V:4] G,8 | 
[V:1] D2G2FEF2 | 
[V:2] B3cd2d2 | 
[V:3] z8 | 
[V:4] z8 | 
[V:1] G4c4 | 
[V:2] _e3dc2BA | 
[V:3] z8 | 
[V:4] z8 | 
[V:1] B2A2B4 | 
[V:2] G2c2BAB2 | 
[V:3] z8 | 
[V:4] z8 | 
[V:1] A2c2d2A2- | 
[V:2] c4f4 | 
[V:3] z8 | 
[V:4] z8 | 
[V:1] A2d3^cc2 | 
[V:2] e2d2e4 | 
[V:3] z4A4 | 
[V:4] z8 | 
[V:1] d8 | 
[V:2] d2f2g2d2- | 
[V:3] B4B2B2- | 
[V:4] z8 | 
[V:1] z8 | 
[V:2] d2g3^f^f2 | 
[V:3] B2AGA2B2 | 
[V:4] z4D,4 | 
[V:1] z8 | 
[V:2] g8 | 
[V:3] G2G4G2 | 
[V:4] _E,4E,2E,2- | 
[V:1] z8 | 
[V:2] z8 | 
[V:3] G2FED2G2 | 
[V:4] E,2D,C,D,2_E,2 | 
[V:1] z8 | 
[V:2] z8 | 
[V:3] A2A4GF | 
[V:4] C,2C,4C,2 | 
[V:1] z8 | 
[V:2] z8 | 
[V:3] ECF2E2E2 | 
[V:4] C,2B,,A,,G,,2C,2 | 
[V:1] z8 | 
[V:2] z8 | 
[V:3] D2D2F3G | 
[V:4] D,2D,4C,B,, | 
[V:1] z4A4 | 
[V:2] z8 | 
[V:3] A2G3^F^F2 | 
[V:4] A,,F,,B,,2A,,2A,,2 | 
[V:1] B4B2B2- | 
[V:2] z8 | 
[V:3] G2G4FE | 
[V:4] G,,2G,,2B,,3C, | 
[V:1] B2AGA2B2 | 
[V:2] z4d4 | 
[V:3] D2E2F2G2 | 
[V:4] D,2C,3B,,B,,2 | 
[V:1] G2G4G2 | 
[V:2] e4e2e2- | 
[V:3] C8 | 
[V:4] C,2C,4B,,A,, | 
[V:1] G2FED2G2 | 
[V:2] e2dcd2e2 | 
[V:3] z4z2E2 | 
[V:4] G,,2A,,2B,,2C,2 | 
[V:1] A2A4GF | 
[V:2] c2c4c2 | 
[V:3] F3GA4- | 
[V:4] F,,8 | 
[V:1] ECF2E2E2 | 
[V:2] c2BAG2c2 | 
[V:3] A2F2G2A2 | 
[V:4] z4z2A,,2 | 
[V:1] D2D2F3G | 
[V:2] d2d4cB | 
[V:3] F2G2D4 | 
[V:4] B,,3C,D,4- | 
[V:1] A2G3^FF2 | 
[V:2] AFB2A2A2 | 
[V:3] D4z2D2- | 
[V:4] D,2B,,2C,2D,2 | 
[V:1] G8- | 
[V:2] G2G2B3c | 
[V:3] D2E2D2G2- | 
[V:4] B,,2C,2G,,4 | 
[V:1] G8- | 
[V:2] d8- | 
[V:3] G2FED4 | 
[V:4] G,,8- | 
[V:1] G8 |]  
[V:2] d8 |]  
[V:3] G8 |]  
[V:4] G,,8 |]  



